X:117
T: Cai Hua
N: C0157
O: China,Liaoning, Changhai
S: III, 293]
N: Sehr heiter. Tanzcharakter. dass wie Nr. 156
N: Die letzten beiden Takte werden in der 10. Strophe ersetzt durch:
N: 3__5___3__  6____  ^____  ^__0__0__0__ // ++Vereinzelt Verzierungen.
N: +++ Grundton wechselt von D nach D!! +++
R: Xiaodiao, Shike caihua diao. Chang siji huahui]
M: 4/4
L: 1/16
K: G
G3GG2G2E2F2E4
G3GG2G2E2F2E4
z2e4e2d4d4 | B4d4F4E4 |
z2E4E2E4E4 | E3EG4B,2D2B,4 |
B,3DB,2D2B,4D4
B,3DB,2D2B,4D4
B4d8F4 | E8
z2e4e2 | d4d4d4F4 | B4d8B2F2 | E16

@@@ Tune index: 6118
